X:3023
T:Citany
C:anon.
O:Hungary
Z:Transcribed by Frank Nordberg - http://www.musicaviva.com
F:http://abc.musicaviva.com/tunes/hungary/citany.abc
M:2/4
L:1/8
K:C
"C"GE "G7"FD|"C"EC "G"DB,|"C"C2C2|"C"C4|
"F"AA AA|"F"AB cA|"C"G2G2|"C"G4|
"F"AA AA|"F"ABc2|"C"GA GF|"C"EDC2|
"C"GE "G7"FD|"C"EC "G"DB,|"C"C2C2|"C"C4|]
W:
W:
W:  From Musica Viva - http://www.musicaviva.com
W:  the Internet center for free sheet music downloads.

